_src/_new diff frame 2.svg

<?xml version="1.0" encoding="UTF-8" standalone="no"?>
<!-- Created with Inkscape (http://www.inkscape.org/) -->

<svg
   xmlns:dc="http://purl.org/dc/elements/1.1/"
   xmlns:cc="http://creativecommons.org/ns#"
   xmlns:rdf="http://www.w3.org/1999/02/22-rdf-syntax-ns#"
   xmlns:svg="http://www.w3.org/2000/svg"
   xmlns="http://www.w3.org/2000/svg"
   xmlns:xlink="http://www.w3.org/1999/xlink"
   xmlns:sodipodi="http://sodipodi.sourceforge.net/DTD/sodipodi-0.dtd"
   xmlns:inkscape="http://www.inkscape.org/namespaces/inkscape"
   width="512"
   height="80"
   viewBox="0 0 512 80.000002"
   id="svg4370"
   version="1.1"
   inkscape:version="0.91 r13725"
   sodipodi:docname="_new diff frame 2.svg"
   inkscape:export-filename="C:\Apps\StepMania-dev\SM 51 3cc307\Themes\fiftyOne\Graphics\StepsDisplayListRow frame.png"
   inkscape:export-xdpi="90"
   inkscape:export-ydpi="90">
  <defs
     id="defs4372">
    <linearGradient
       inkscape:collect="always"
       id="linearGradient4145">
      <stop
         style="stop-color:#f7f7f7;stop-opacity:0.82738096"
         offset="0"
         id="stop4147" />
      <stop
         id="stop4153"
         offset="0.5"
         style="stop-color:#c5c5c5;stop-opacity:0.80392157;" />
      <stop
         style="stop-color:#ededed;stop-opacity:0.94117647"
         offset="1"
         id="stop4149" />
    </linearGradient>
    <linearGradient
       inkscape:collect="always"
       xlink:href="#linearGradient4145"
       id="linearGradient4151"
       x1="105.94059"
       y1="1038.5009"
       x2="105.94059"
       y2="984.54041"
       gradientUnits="userSpaceOnUse"
       gradientTransform="translate(0,8)" />
    <linearGradient
       gradientTransform="translate(-88.303629,-983.86103)"
       inkscape:collect="always"
       xlink:href="#linearGradient4145"
       id="linearGradient4151-7"
       x1="105.94059"
       y1="1038.5009"
       x2="105.94059"
       y2="984.54041"
       gradientUnits="userSpaceOnUse" />
  </defs>
  <sodipodi:namedview
     id="base"
     pagecolor="#bcbcbc"
     bordercolor="#666666"
     borderopacity="1.0"
     inkscape:pageopacity="0"
     inkscape:pageshadow="2"
     inkscape:zoom="1.1572757"
     inkscape:cx="382.93286"
     inkscape:cy="42.752987"
     inkscape:document-units="px"
     inkscape:current-layer="layer1"
     showgrid="false"
     units="px"
     inkscape:window-width="1680"
     inkscape:window-height="987"
     inkscape:window-x="-8"
     inkscape:window-y="-8"
     inkscape:window-maximized="1" />
  <metadata
     id="metadata4375">
    <rdf:RDF>
      <cc:Work
         rdf:about="">
        <dc:format>image/svg+xml</dc:format>
        <dc:type
           rdf:resource="http://purl.org/dc/dcmitype/StillImage" />
        <dc:title></dc:title>
      </cc:Work>
    </rdf:RDF>
  </metadata>
  <g
     inkscape:label="Layer 1"
     inkscape:groupmode="layer"
     id="layer1"
     transform="translate(0,-972.3622)"
     style="display:inline">
    <path
       style="color:#000000;clip-rule:nonzero;display:inline;overflow:visible;visibility:visible;opacity:1;isolation:auto;mix-blend-mode:normal;color-interpolation:sRGB;color-interpolation-filters:linearRGB;solid-color:#000000;solid-opacity:1;fill:url(#linearGradient4151);fill-opacity:1;fill-rule:evenodd;stroke:#353535;stroke-width:0.60000002;stroke-linecap:butt;stroke-linejoin:miter;stroke-miterlimit:4;stroke-dasharray:none;stroke-dashoffset:0;stroke-opacity:1;marker:none;color-rendering:auto;image-rendering:auto;shape-rendering:auto;text-rendering:auto;enable-background:accumulate"
       d="m 89.580078,984.59267 c -2.517427,0 -4.544922,2.02749 -4.544922,4.54492 l 0,46.45121 c 0,2.5174 2.027495,4.5429 4.544922,4.5429 l 286.583982,0 c -9.2548,-9.2541 -18.55922,-18.5463 -27.77734,-27.7871 l 27.75195,-27.75193 z"
       id="rect4280"
       inkscape:connector-curvature="0"
       sodipodi:nodetypes="sssscccs" />
    <path
       style="color:#000000;clip-rule:nonzero;display:inline;overflow:visible;visibility:visible;opacity:1;isolation:auto;mix-blend-mode:normal;color-interpolation:sRGB;color-interpolation-filters:linearRGB;solid-color:#000000;solid-opacity:1;fill:#ffffff;fill-opacity:0.81547618;fill-rule:evenodd;stroke:#353535;stroke-width:0.60000002;stroke-linecap:butt;stroke-linejoin:miter;stroke-miterlimit:4;stroke-dasharray:none;stroke-dashoffset:0;stroke-opacity:1;marker:none;color-rendering:auto;image-rendering:auto;shape-rendering:auto;text-rendering:auto;enable-background:accumulate"
       d="m 379.64266,984.59267 -27.75195,27.75193 c 9.21812,9.2408 18.52254,18.533 27.77734,27.7871 l 42.3925,0 c 2.51742,0 4.54297,-2.0255 4.54297,-4.5429 l 0,-46.45121 c 0,-2.51743 -2.02555,-4.54492 -4.54297,-4.54492 z"
       id="rect4280-5"
       inkscape:connector-curvature="0"
       sodipodi:nodetypes="cccssssc" />
  </g>
  <g
     inkscape:groupmode="layer"
     id="layer2"
     inkscape:label="Layer 2"
     style="display:none">
    <path
       style="color:#000000;clip-rule:nonzero;display:inline;overflow:visible;visibility:visible;opacity:1;isolation:auto;mix-blend-mode:normal;color-interpolation:sRGB;color-interpolation-filters:linearRGB;solid-color:#000000;solid-opacity:1;fill:#ffffff;fill-opacity:0.82142861;fill-rule:evenodd;stroke:#bc0000;stroke-width:1.89999998;stroke-linecap:butt;stroke-linejoin:miter;stroke-miterlimit:4;stroke-dasharray:none;stroke-dashoffset:0;stroke-opacity:1;marker:none;color-rendering:auto;image-rendering:auto;shape-rendering:auto;text-rendering:auto;enable-background:accumulate"
       d="M 394.12365,11.79883 365.92248,40 l -0.01,0 28.20117,28.2012 c 9.10882,0 37.38553,0 40.1543,0 1.18144,0 4.15646,0 5.43945,0 L 467.90858,40 439.69569,11.79883 l -5.42774,0 -40.14453,0 z"
       id="rect4138-5-7-5-8-8"
       inkscape:connector-curvature="0" />
  </g>
</svg>

<?xml version="1.0" encoding="UTF-8" standalone="no"?>
<!DOCTYPE svg PUBLIC "-//W3C//DTD SVG 1.1//EN" "http://www.w3.org/Graphics/SVG/1.1/DTD/svg11.dtd">
<svg width="100%" height="100%" viewBox="0 0 512 81" version="1.1" xmlns="http://www.w3.org/2000/svg" xmlns:xlink="http://www.w3.org/1999/xlink" xml:space="preserve" style="fill-rule:evenodd;clip-rule:evenodd;">
    <g id="Layer-1" transform="matrix(1,0,0,1,0,-972.362)">
        <g id="rect4280" transform="matrix(1,0,0,1,39.7042,0)">
            <path d="M10.533,984.593C8.016,984.593 5.988,986.62 5.988,989.138L5.988,1035.59C5.988,1038.11 8.016,1040.13 10.533,1040.13L376.164,1040.13C366.909,1030.88 357.605,1021.59 348.387,1012.35L376.139,984.593L10.533,984.593Z" style="fill:url(#_Linear1);stroke:rgb(53,53,53);stroke-width:0.6px;"/>
        </g>
        <g id="rect4280.-5" transform="matrix(1,0,0,1,39.7042,0)">
            <path d="M379.643,984.593L351.891,1012.35C361.109,1021.59 370.413,1030.88 379.668,1040.13L422.061,1040.13C424.578,1040.13 426.604,1038.11 426.604,1035.59L426.604,989.138C426.604,986.62 424.578,984.593 422.061,984.593L379.643,984.593Z" style="fill:white;fill-opacity:0.811765;stroke:rgb(53,53,53);stroke-width:0.6px;"/>
        </g>
    </g>
    <defs>
        <linearGradient id="_Linear1" x1="0" y1="0" x2="1" y2="0" gradientUnits="userSpaceOnUse" gradientTransform="matrix(3.30413e-15,-53.9605,53.9605,3.30413e-15,105.941,1046.5)"><stop offset="0" style="stop-color:rgb(247,247,247);stop-opacity:0.823529"/><stop offset="0.5" style="stop-color:rgb(197,197,197);stop-opacity:0.803922"/><stop offset="1" style="stop-color:rgb(237,237,237);stop-opacity:0.937255"/></linearGradient>
    </defs>
</svg>
